; generated by PrusaSlicer 2.5.0+win64 on 2023-01-05 at 17:17:04 UTC

; external perimeters extrusion width = 0.60mm
; perimeters extrusion width = 0.50mm
; infill extrusion width = 0.50mm
; solid infill extrusion width = 0.50mm
; top infill extrusion width = 0.45mm
; first layer extrusion width = 0.42mm

; external perimeters extrusion width = 0.60mm
; perimeters extrusion width = 0.50mm
; infill extrusion width = 0.50mm
; solid infill extrusion width = 0.50mm
; top infill extrusion width = 0.45mm
; first layer extrusion width = 0.42mm

; external perimeters extrusion width = 0.60mm
; perimeters extrusion width = 0.50mm
; infill extrusion width = 0.50mm
; solid infill extrusion width = 0.50mm
; top infill extrusion width = 0.45mm
; first layer extrusion width = 0.42mm

M73 P0 R8
M73 Q0 S8
M201 X1000 Y1000 Z200 E8000 ; sets maximum accelerations, mm/sec^2
M203 X200 Y200 Z12 E120 ; sets maximum feedrates, mm / sec
M204 P1250 R1250 T1250 ; sets acceleration (P, T) and retract acceleration (R), mm/sec^2
M205 X8.00 Y8.00 Z0.40 E4.50 ; sets the jerk limits, mm/sec
M205 S0 T0 ; sets the minimum extruding and travel feed rate, mm/sec
M107
;TYPE:Custom
M862.3 P "MK3SMMU2S" ; printer model check
M862.1 P0.4 ; nozzle diameter check
M115 U3.11.0 ; tell printer latest fw version
G90 ; use absolute coordinates
M83 ; extruder relative mode
M104 S230 ; set extruder temp
M140 S85 ; set bed temp
M190 S85 ; wait for bed temp
M109 S230 ; wait for extruder temp
G28 W ; home all without mesh bed level
G80 ; mesh bed leveling

; Send the filament type to the MMU2.0 unit.
; E stands for extruder number, F stands for filament type (0: default; 1:flex; 2: PVA)
M403 E0 F0
M403 E1 F0
M403 E2 F0
M403 E3 F0
M403 E4 F0


;go outside print area
G1 Y-3 F1000
G1 Z0.4 F1000
; select extruder
T0
; initial load
G1 X55 E29 F1073
G1 X5 E29 F1800
G1 X55 E8 F2000
G1 Z0.3 F1000
G92 E0
M73 P1 R8
M73 Q1 S8
G1 X240 E25 F2200
G1 Y-2 F1000
M73 P2 R8
M73 Q2 S8
G1 X55 E25 F1400
G1 Z0.2 F1000
M73 P3 R8
M73 Q3 S8
G1 X5 E4 F1000
G92 E0


M221 S95
G92 E0

; Don't change E values below. Excessive value can damage the printer.

M907 E538 ; set extruder motor current
G21 ; set units to millimeters
G90 ; use absolute coordinates
M83 ; use relative distances for extrusion
M900 K0.08 ; Filament gcode LA 1.5
M900 K45 ; Filament gcode LA 1.0
M107
;LAYER_CHANGE
;Z:0.2
;HEIGHT:0.2
;BEFORE_LAYER_CHANGE
G92 E0.0
;0.2


G1 E-1 F2100
M73 P4 R8
M73 Q4 S8
G1 Z.2 F720
;AFTER_LAYER_CHANGE
;0.2
G1 Z.4
G1 X91.527 Y73.241 F10800
G1 Z.2 F720
G1 E1 F2100
M204 S800
;TYPE:Skirt/Brim
;WIDTH:0.42
G1 F1200
G1 X92.863 Y71.653 E.06508
G1 X94.375 Y70.292 E.06378
G1 X96.094 Y69.129 E.06508
G1 X97.958 Y68.216 E.06508
G1 X99.72 Y67.627 E.05825
G1 X101.717 Y67.239 E.06378
G1 X103.609 Y67.126 E.05944
G1 X105.641 Y67.273 E.06388
G1 X107.631 Y67.696 E.06378
G1 X109.382 Y68.316 E.05825
G1 X111.23 Y69.261 E.06508
G1 X112.897 Y70.428 E.06378
G1 X114.266 Y71.683 E.05825
G1 X115.598 Y73.275 E.06508
G1 X116.676 Y75 E.06378
G1 X134.819 Y112.796 E1.31452
G1 X135.476 Y114.345 E.05278
M73 P5 R8
M73 Q5 S8
G1 X135.91 Y115.715 E.04507
G1 X136.23 Y117.159 E.04637
G1 X136.416 Y118.584 E.04507
G1 X136.477 Y120.021 E.04507
G1 X136.404 Y121.542 E.04777
G1 X136.178 Y123.124 E.05008
G1 X135.844 Y124.522 E.04507
G1 X135.39 Y125.885 E.04507
G1 X134.672 Y127.499 E.05537
G1 X133.672 Y129.197 E.06178
G1 X132.609 Y130.607 E.05537
G1 X131.222 Y132.065 E.06308
G1 X94.662 Y163.234 E1.50636
G1 X93.12 Y163.801 E.05151
G1 X68.12 Y163.801 E.78386
G1 X66.813 Y163.41 E.04278
M73 P6 R8
M73 Q6 S8
G1 X65.937 Y162.364 E.04278
G1 X65.743 Y161.424 E.03008
G1 X65.743 Y136.424 E.78386
G1 X65.916 Y135.535 E.0284
G1 X89.756 Y76.431 E1.99825
G1 X90.529 Y74.808 E.05635
M73 P7 R8
M73 Q7 S8
G1 X91.495 Y73.292 E.05637
M204 S1000
; printing object Form-Kubus id:0 copy 0
;WIPE_START
G1 F8640
G1 X92.863 Y71.653 E-.49299
G1 X94.334 Y70.329 E-.45701
;WIPE_END
G1 E-.05 F2100
G1 Z.4 F720
G1 X92.333 Y160.637 F10800
G1 Z.2 F720
G1 E1 F2100
M204 S800
;TYPE:Perimeter
;WIDTH:0.419999
G1 F1200
G1 X68.908 Y160.637 E.7345
G1 X68.908 Y137.211 E.7345
G1 X92.333 Y137.211 E.7345
G1 X92.333 Y160.577 E.73262
M204 S1000
M73 P7 R7
M73 Q8 S8
G1 X92.71 Y161.014 F10800
M204 S800
;TYPE:External perimeter
M73 P8 R7
G1 F1200
G1 X68.53 Y161.014 E.75815
G1 X68.53 Y136.834 E.75815
M73 Q8 S7
G1 X92.71 Y136.834 E.75815
G1 X92.71 Y160.954 E.75626
M204 S1000
G1 X92.324 Y160.911 F10800
;WIPE_START
M73 P9 R7
M73 Q9 S7
G1 F8640
G1 X88.596 Y160.964 E-.95
;WIPE_END
G1 E-.05 F2100
G1 Z.4 F720
G1 X91.457 Y137.324 F10800
G1 Z.2 F720
G1 E1 F2100
M204 S800
;TYPE:Solid infill
;WIDTH:0.42065
G1 F1200
G1 X92.051 Y137.918 E.02638
G1 X92.051 Y138.453 E.01678
G1 X91.092 Y137.494 E.04257
G1 X90.558 Y137.494 E.01678
G1 X92.051 Y138.987 E.0663
G1 X92.051 Y139.521 E.01678
G1 X90.024 Y137.494 E.09003
G1 X89.49 Y137.494 E.01678
G1 X92.051 Y140.055 E.11376
G1 X92.051 Y140.589 E.01678
G1 X88.955 Y137.494 E.13748
G1 X88.421 Y137.494 E.01678
G1 X92.051 Y141.123 E.16121
G1 X92.051 Y141.658 E.01678
G1 X87.887 Y137.494 E.18494
G1 X87.353 Y137.494 E.01678
G1 X92.051 Y142.192 E.20867
G1 X92.051 Y142.726 E.01678
G1 X86.819 Y137.494 E.2324
G1 X86.284 Y137.494 E.01678
G1 X92.051 Y143.26 E.25612
G1 X92.051 Y143.794 E.01678
G1 X85.75 Y137.494 E.27985
G1 X85.216 Y137.494 E.01678
G1 X92.051 Y144.329 E.30358
G1 X92.051 Y144.863 E.01678
M73 Q10 S7
G1 X84.682 Y137.494 E.32731
G1 X84.148 Y137.494 E.01678
M73 P10 R7
G1 X92.051 Y145.397 E.35103
G1 X92.051 Y145.931 E.01678
G1 X83.613 Y137.494 E.37476
G1 X83.079 Y137.494 E.01678
G1 X92.051 Y146.465 E.39849
G1 X92.051 Y147 E.01678
G1 X82.545 Y137.494 E.42222
G1 X82.011 Y137.494 E.01678
G1 X92.051 Y147.534 E.44595
G1 X92.051 Y148.068 E.01678
G1 X81.477 Y137.494 E.46967
G1 X80.942 Y137.494 E.01678
G1 X92.051 Y148.602 E.4934
G1 X92.051 Y149.136 E.01678
M73 P11 R7
M73 Q11 S7
G1 X80.408 Y137.494 E.51713
G1 X79.874 Y137.494 E.01678
G1 X92.051 Y149.671 E.54086
G1 X92.051 Y150.205 E.01678
G1 X79.34 Y137.494 E.56458
G1 X78.806 Y137.494 E.01678
G1 X92.051 Y150.739 E.58831
G1 X92.051 Y151.273 E.01678
G1 X78.272 Y137.494 E.61204
G1 X77.737 Y137.494 E.01678
M73 Q12 S7
G1 X92.051 Y151.807 E.63577
G1 X92.051 Y152.341 E.01678
M73 P12 R7
G1 X77.203 Y137.494 E.6595
G1 X76.669 Y137.494 E.01678
G1 X92.051 Y152.876 E.68322
G1 X92.051 Y153.41 E.01678
G1 X76.135 Y137.494 E.70695
G1 X75.601 Y137.494 E.01678
G1 X92.051 Y153.944 E.73068
G1 X92.051 Y154.478 E.01678
M73 P13 R7
M73 Q13 S7
G1 X75.066 Y137.494 E.75441
G1 X74.532 Y137.494 E.01678
G1 X92.051 Y155.012 E.77813
G1 X92.051 Y155.547 E.01678
G1 X73.998 Y137.494 E.80186
G1 X73.464 Y137.494 E.01678
G1 X92.051 Y156.081 E.82559
G1 X92.051 Y156.615 E.01678
M73 P14 R7
M73 Q14 S7
G1 X72.93 Y137.494 E.84932
G1 X72.395 Y137.494 E.01678
G1 X92.051 Y157.149 E.87305
G1 X92.051 Y157.683 E.01678
G1 X71.861 Y137.494 E.89677
G1 X71.327 Y137.494 E.01678
G1 X92.051 Y158.218 E.9205
G1 X92.051 Y158.752 E.01678
M73 P15 R7
M73 Q15 S7
G1 X70.793 Y137.494 E.94423
G1 X70.259 Y137.494 E.01678
G1 X92.051 Y159.286 E.96796
G1 X92.051 Y159.82 E.01678
G1 X69.724 Y137.494 E.99168
G1 X69.19 Y137.494 E.01678
M73 P16 R7
M73 Q16 S7
G1 X92.051 Y160.354 E1.01541
G1 X91.516 Y160.354 E.01678
G1 X69.19 Y138.028 E.99168
G1 X69.19 Y138.562 E.01678
G1 X90.982 Y160.354 E.96795
G1 X90.448 Y160.354 E.01678
M73 P17 R7
M73 Q17 S7
G1 X69.19 Y139.097 E.94422
G1 X69.19 Y139.631 E.01678
G1 X89.914 Y160.354 E.9205
G1 X89.38 Y160.354 E.01678
G1 X69.19 Y140.165 E.89677
G1 X69.19 Y140.699 E.01678
G1 X88.845 Y160.354 E.87304
G1 X88.311 Y160.354 E.01678
M73 P18 R7
M73 Q18 S7
G1 X69.19 Y141.233 E.84931
G1 X69.19 Y141.768 E.01678
G1 X87.777 Y160.354 E.82559
G1 X87.243 Y160.354 E.01678
G1 X69.19 Y142.302 E.80186
G1 X69.19 Y142.836 E.01678
G1 X86.709 Y160.354 E.77813
G1 X86.174 Y160.354 E.01678
M73 P19 R7
M73 Q19 S7
G1 X69.19 Y143.37 E.7544
G1 X69.19 Y143.904 E.01678
M73 P19 R6
G1 X85.64 Y160.354 E.73067
G1 X85.106 Y160.354 E.01678
G1 X69.19 Y144.439 E.70695
G1 X69.19 Y144.973 E.01678
M73 Q19 S6
G1 X84.572 Y160.354 E.68322
G1 X84.038 Y160.354 E.01678
M73 P20 R6
M73 Q20 S6
G1 X69.19 Y145.507 E.65949
G1 X69.19 Y146.041 E.01678
G1 X83.503 Y160.354 E.63576
G1 X82.969 Y160.354 E.01678
G1 X69.19 Y146.575 E.61204
G1 X69.19 Y147.11 E.01678
G1 X82.435 Y160.354 E.58831
G1 X81.901 Y160.354 E.01678
G1 X69.19 Y147.644 E.56458
G1 X69.19 Y148.178 E.01678
M73 P21 R6
M73 Q21 S6
G1 X81.367 Y160.354 E.54085
G1 X80.833 Y160.354 E.01678
G1 X69.19 Y148.712 E.51712
G1 X69.19 Y149.246 E.01678
G1 X80.298 Y160.354 E.4934
G1 X79.764 Y160.354 E.01678
G1 X69.19 Y149.78 E.46967
G1 X69.19 Y150.315 E.01678
G1 X79.23 Y160.354 E.44594
G1 X78.696 Y160.354 E.01678
G1 X69.19 Y150.849 E.42221
G1 X69.19 Y151.383 E.01678
G1 X78.162 Y160.354 E.39849
M73 P22 R6
G1 X77.627 Y160.354 E.01678
M73 Q22 S6
G1 X69.19 Y151.917 E.37476
G1 X69.19 Y152.451 E.01678
G1 X77.093 Y160.354 E.35103
G1 X76.559 Y160.354 E.01678
G1 X69.19 Y152.986 E.3273
G1 X69.19 Y153.52 E.01678
G1 X76.025 Y160.354 E.30357
G1 X75.491 Y160.354 E.01678
G1 X69.19 Y154.054 E.27985
G1 X69.19 Y154.588 E.01678
G1 X74.956 Y160.354 E.25612
G1 X74.422 Y160.354 E.01678
G1 X69.19 Y155.122 E.23239
G1 X69.19 Y155.657 E.01678
G1 X73.888 Y160.354 E.20866
G1 X73.354 Y160.354 E.01678
G1 X69.19 Y156.191 E.18494
G1 X69.19 Y156.725 E.01678
G1 X72.82 Y160.354 E.16121
G1 X72.285 Y160.354 E.01678
M73 P23 R6
M73 Q23 S6
G1 X69.19 Y157.259 E.13748
G1 X69.19 Y157.793 E.01678
G1 X71.751 Y160.354 E.11375
G1 X71.217 Y160.354 E.01678
G1 X69.19 Y158.328 E.09002
G1 X69.19 Y158.862 E.01678
G1 X70.683 Y160.354 E.0663
G1 X70.149 Y160.354 E.01678
G1 X69.19 Y159.396 E.04257
G1 X69.19 Y159.93 E.01678
G1 X69.784 Y160.524 E.02638
M204 S1000
; stop printing object Form-Kubus id:0 copy 0
; printing object Form-Zylinder id:1 copy 0
;WIPE_START
G1 F8640
G1 X69.19 Y159.93 E-.19393
G1 X69.19 Y159.396 E-.12335
G1 X70.149 Y160.354 E-.31295
G1 X70.683 Y160.354 E-.12335
G1 X70.081 Y159.753 E-.19643
;WIPE_END
G1 E-.05 F2100
G1 Z.4 F720
G1 X106.443 Y121.905 F10800
G1 Z.2 F720
G1 E1 F2100
M204 S800
;TYPE:External perimeter
;WIDTH:0.419999
G1 F1200
G1 X106.362 Y121.193 E.02247
G1 X106.319 Y120.479 E.02243
G1 X106.329 Y119.282 E.03754
G1 X106.385 Y118.571 E.02237
G1 X106.562 Y117.386 E.03755
G1 X106.717 Y116.688 E.02242
G1 X106.908 Y115.998 E.02247
G1 X107.133 Y115.325 E.02222
G1 X107.315 Y114.852 E.01592
G1 X107.593 Y114.214 E.02179
G1 X107.912 Y113.573 E.02247
G1 X108.265 Y112.949 E.02248
G1 X108.651 Y112.345 E.02247
G1 X109.062 Y111.768 E.02222
G1 X109.375 Y111.368 E.01592
G1 X109.826 Y110.84 E.02179
G1 X110.32 Y110.32 E.02247
G1 X110.84 Y109.826 E.02247
G1 X111.385 Y109.361 E.02247
G1 X111.947 Y108.93 E.02222
G1 X112.363 Y108.639 E.01592
G1 X112.949 Y108.265 E.02179
G1 X113.573 Y107.913 E.02248
G1 X114.214 Y107.593 E.02247
G1 X114.872 Y107.307 E.02247
G1 X115.543 Y107.056 E.02247
G1 X116.227 Y106.84 E.02247
G1 X116.919 Y106.661 E.02242
G1 X118.096 Y106.443 E.03755
G1 X118.807 Y106.362 E.02242
G1 X119.514 Y106.319 E.02223
G1 X120.022 Y106.31 E.01591
G1 X120.716 Y106.329 E.02179
G1 X121.431 Y106.385 E.02247
G1 X122.142 Y106.479 E.02247
G1 X122.846 Y106.609 E.02247
G1 X123.543 Y106.777 E.02247
G1 X124.229 Y106.98 E.02242
G1 X125.351 Y107.399 E.03755
G1 X126 Y107.695 E.02237
G1 X127.052 Y108.266 E.03755
G1 X127.654 Y108.65 E.02237
G1 X128.617 Y109.362 E.03755
G1 X129.16 Y109.826 E.02242
G1 X129.68 Y110.32 E.02247
G1 X130.174 Y110.84 E.02247
G1 X130.639 Y111.385 E.02247
G1 X131.076 Y111.954 E.0225
G1 X131.366 Y112.37 E.0159
G1 X131.746 Y112.969 E.02223
G1 X132.092 Y113.582 E.02209
G1 X132.411 Y114.224 E.02247
G1 X132.697 Y114.881 E.02247
G1 X132.947 Y115.552 E.02245
G1 X133.102 Y116.032 E.0158
G1 X133.285 Y116.698 E.02167
G1 X133.44 Y117.398 E.02247
G1 X133.586 Y118.35 E.03021
G1 X133.682 Y119.534 E.03722
G1 X133.682 Y120.478 E.02963
G1 X133.638 Y121.193 E.02245
G1 X133.557 Y121.905 E.02247
G1 X133.438 Y122.612 E.02247
G1 X133.283 Y123.312 E.02247
G1 X133.092 Y124.003 E.02247
G1 X132.864 Y124.682 E.02247
G1 X132.602 Y125.349 E.02247
G1 X132.305 Y126 E.02242
G1 X131.734 Y127.052 E.03755
G1 X131.349 Y127.655 E.02242
G1 X130.938 Y128.232 E.02222
G1 X130.625 Y128.632 E.01591
G1 X130.174 Y129.16 E.02179
G1 X129.68 Y129.68 E.02247
G1 X129.16 Y130.174 E.02247
G1 X128.615 Y130.639 E.02247
G1 X128.053 Y131.07 E.02222
G1 X127.637 Y131.361 E.01592
G1 X127.051 Y131.735 E.02179
G1 X126.427 Y132.087 E.02247
G1 X125.786 Y132.407 E.02247
G1 X125.128 Y132.693 E.02247
G1 X124.459 Y132.944 E.02242
G1 X123.31 Y133.284 E.03755
G1 X122.614 Y133.438 E.02237
G1 X121.429 Y133.615 E.03755
G1 X120.716 Y133.671 E.02242
M73 P24 R6
G1 X120 Y133.69 E.02247
G1 X119.284 Y133.671 E.02247
M73 Q24 S6
G1 X118.569 Y133.615 E.02247
G1 X117.858 Y133.521 E.02247
G1 X117.154 Y133.391 E.02247
G1 X116.458 Y133.224 E.02242
G1 X115.316 Y132.864 E.03755
G1 X114.651 Y132.602 E.02242
G1 X114 Y132.305 E.02243
G1 X112.948 Y131.734 E.03755
G1 X112.345 Y131.349 E.02242
G1 X111.768 Y130.938 E.02222
G1 X111.368 Y130.625 E.01591
G1 X110.84 Y130.174 E.02179
G1 X110.32 Y129.68 E.02248
G1 X109.826 Y129.16 E.02247
G1 X109.361 Y128.615 E.02247
G1 X108.926 Y128.048 E.02242
G1 X108.265 Y127.049 E.03755
G1 X107.913 Y126.428 E.02237
G1 X107.398 Y125.348 E.03755
G1 X107.136 Y124.682 E.02242
G1 X106.908 Y124.003 E.02247
G1 X106.717 Y123.312 E.02247
G1 X106.562 Y122.612 E.02247
G1 X106.453 Y121.964 E.02059
M204 S1000
G1 X106.759 Y121.659 F10800
;WIPE_START
G1 F8640
G1 X106.362 Y121.193 E-.17933
G1 X106.319 Y120.479 E-.16515
G1 X106.329 Y119.282 E-.27649
G1 X106.385 Y118.571 E-.16475
G1 X106.49 Y117.867 E-.16428
;WIPE_END
G1 E-.05 F2100
G1 Z.4 F720
G1 X107.659 Y116.223 F10800
G1 Z.2 F720
G1 E1 F2100
M204 S800
G1 F1200
G1 X107.874 Y115.581 E.02126
G1 X108.311 Y114.538 E.03544
G1 X108.606 Y113.938 E.02097
G1 X108.939 Y113.35 E.02119
G1 X109.302 Y112.78 E.02118
G1 X109.696 Y112.228 E.02126
G1 X110.254 Y111.534 E.02792
G1 X110.719 Y111.026 E.02161
G1 X111.524 Y110.262 E.03478
G1 X112.048 Y109.83 E.0213
G1 X112.591 Y109.428 E.02119
G1 X113.155 Y109.054 E.02119
G1 X113.737 Y108.711 E.02119
G1 X114.336 Y108.399 E.02119
G1 X114.951 Y108.118 E.02119
G1 X115.58 Y107.87 E.02119
G1 X116.221 Y107.656 E.0212
G1 X117.103 Y107.427 E.02856
G1 X117.976 Y107.25 E.02793
G1 X118.646 Y107.161 E.02119
G1 X119.319 Y107.108 E.02119
G1 X120.446 Y107.098 E.03533
G1 X121.12 Y107.139 E.02118
G1 X121.792 Y107.215 E.02119
G1 X122.459 Y107.326 E.0212
G1 X123.349 Y107.54 E.02872
G1 X123.987 Y107.725 E.02081
G1 X124.832 Y108.028 E.02814
G1 X125.451 Y108.297 E.02119
G1 X126.451 Y108.817 E.03533
G1 X127.027 Y109.17 E.02119
G1 X127.941 Y109.822 E.03519
G1 X128.466 Y110.254 E.0213
G1 X128.964 Y110.71 E.02119
G1 X129.438 Y111.192 E.02119
G1 X129.886 Y111.698 E.02119
G1 X130.307 Y112.227 E.02119
G1 X130.7 Y112.777 E.02119
G1 X131.063 Y113.347 E.02119
G1 X131.601 Y114.337 E.03533
G1 X131.882 Y114.951 E.02118
G1 X132.13 Y115.58 E.02119
G1 X132.344 Y116.221 E.0212
G1 X132.664 Y117.528 E.04218
G1 X132.813 Y118.418 E.02831
G1 X132.878 Y119.095 E.0213
G1 X132.908 Y119.77 E.0212
G1 X132.89 Y120.456 E.02152
G1 X132.857 Y121.121 E.02089
G1 X132.781 Y121.793 E.02119
G1 X132.668 Y122.452 E.02097
G1 X132.472 Y123.333 E.0283
G1 X132.28 Y123.985 E.0213
G1 X132.054 Y124.622 E.0212
G1 X131.607 Y125.652 E.0352
G1 X131.294 Y126.255 E.0213
G1 X130.951 Y126.837 E.02119
G1 X130.578 Y127.401 E.02119
G1 X130.176 Y127.944 E.02119
G1 X129.746 Y128.466 E.02119
G1 X129.29 Y128.965 E.0212
G1 X128.626 Y129.595 E.02872
G1 X128.119 Y130.032 E.02097
G1 X127.581 Y130.445 E.02126
G1 X126.845 Y130.946 E.02792
G1 X125.865 Y131.501 E.03533
G1 X125.255 Y131.792 E.02118
G1 X124.631 Y132.051 E.02119
G1 X123.994 Y132.277 E.0212
G1 X123.107 Y132.523 E.02888
G1 X122.464 Y132.669 E.02065
G1 X121.578 Y132.813 E.02815
G1 X120.905 Y132.878 E.02119
G1 X120.23 Y132.908 E.02119
G1 X119.554 Y132.902 E.02119
G1 X118.88 Y132.861 E.0212
G1 X117.971 Y132.742 E.02872
G1 X117.313 Y132.623 E.02097
G1 X116.661 Y132.467 E.02103
G1 X115.802 Y132.208 E.02814
G1 X114.753 Y131.796 E.03533
G1 X114.143 Y131.505 E.02118
G1 X113.549 Y131.183 E.02119
G1 X112.973 Y130.83 E.02119
