; generated by PrusaSlicer 2.5.0+win64 

M73 P0 R8
M73 Q0 S8
M201 X1000 Y1000 Z200 E8000 ; sets maximum accelerations, mm/sec^2
M203 X200 Y200 Z12 E120 ; sets maximum feedrates, mm / sec
M204 P1250 R1250 T1250 ; sets acceleration (P, T) and retract acceleration (R), mm/sec^2
M205 X8.00 Y8.00 Z0.40 E4.50 ; sets the jerk limits, mm/sec
M205 S0 T0 ; sets the minimum extruding and travel feed rate, mm/sec
M107
;TYPE:Custom
M862.3 P "MK3SMMU2S" ; printer model check
M862.1 P0.4 ; nozzle diameter check
M115 U3.11.0 ; tell printer latest fw version
G90 ; use absolute coordinates
M83 ; extruder relative mode
M104 S215 ; set extruder temp
M140 S60 ; set bed temp
M190 S60 ; wait for bed temp
M109 S215 ; wait for extruder temp
G28 W ; home all without mesh bed level
G80 ; mesh bed leveling

; Send the filament type to the MMU2.0 unit.
; E stands for extruder number, F stands for filament type (0: default; 1:flex; 2: PVA)
M403 E0 F0
M403 E1 F0
M403 E2 F0
M403 E3 F0
M403 E4 F0


;go outside print area
G1 Y-3 F1000
G1 Z.4 F1000
; select extruder
T0
; initial load
G1 X55 E29 F1073
G1 X5 E29 F1800
G1 X55 E8 F2000
M73 P1 R8
M73 Q1 S8
G1 Z.3 F1000
G92 E0
G1 X240 E25 F2200
G1 Y-2 F1000
M73 P2 R7
M73 Q2 S7
G1 X55 E25 F1400
G1 Z.2 F1000
M73 P4 R7
M73 Q4 S7
G1 X5 E4 F1000
G92 E0


M221 S95
G92 E0

; Don't change E values below. Excessive value can damage the printer.

M907 E538 ; set extruder motor current
G21 ; set units to millimeters
G90 ; use absolute coordinates
M83 ; use relative distances for extrusion
M900 K0.05 ; Filament gcode LA 1.5
M900 K30 ; Filament gcode LA 1.0
M107
;LAYER_CHANGE
;Z:0.2
;HEIGHT:0.2
;BEFORE_LAYER_CHANGE
G92 E.0
;0.2


G1 E-.8 F2100
G1 Z.4 F720
;AFTER_LAYER_CHANGE
;0.2
G1 X91.527 Y73.241 F10800
G1 Z.2 F720
G1 E.8 F2100
M204 S800
;TYPE:Skirt/Brim

G1 F2000

G1 X125.000 Y125.000 E.00000
G1 X125.000 Y125.000 E.00000
G1 X175.000 Y125.000 E2.14286
G1 X175.000 Y175.000 E2.14286
G1 X125.000 Y175.000 E2.14286
G1 X125.000 Y125.000 E2.14286
G1 X125.300 Y125.300 E.00424
G1 X174.700 Y125.300 E2.11714
G1 X174.700 Y174.700 E2.11714
G1 X125.300 Y174.700 E2.11714
G1 X125.300 Y125.300 E2.11714
G1 X125.600 Y125.600 E.00424
G1 X174.400 Y125.600 E2.09143
G1 X174.400 Y174.400 E2.09143
G1 X125.600 Y174.400 E2.09143
G1 X125.600 Y125.600 E2.09143
G1 X125.900 Y125.900 E.00424
;LAYER_CHANGE
;Z:0.50
;HEIGHT:0.5
;BEFORE_LAYER_CHANGE
;G92 E.0
;0.50
M204 S1000
G1 X126.041 Y126.041 F10800
;WIPE_START
G1 F8640
G1 X126.183 X126.183 E-.20000
G1 X126.466 X126.466 E-.20000
G1 X126.749 X126.749 E-.20000
G1 X127.031 X127.031 E-.20000
;WIPE_END
G1 E-.04 F2100
G1 Z.8 F720
;AFTER_LAYER_CHANGE
;0.50
G1 X150.000 Y150.000 F10800
G1 Z.50 F720
G1 E.8 F2100
;TYPE:Perimeter
:WIDTH:0.419999
M204 S800
G1 F2400
M204 S1000
G1 X149.860 Y149.857 F10800
;WIPE_START
G1 F8640
G1 X149.720 X149.715 E-.20000
G1 X149.439 X149.429 E-.20000
G1 X149.159 X149.144 E-.20000
G1 X148.879 X148.859 E-.20000
;WIPE_END
G1 E-.04 F2100
G1 Z.8 F720
G1 X125.384 Y124.951 F10800
G1 Z.50 F720
G1 E.8 F2100
;TYPE:Perimeter
:WIDTH:0.419999
M204 S800
G1 F2400
G1 X175.049 Y125.384 E2.12857
G1 X174.616 Y175.049 E2.12857
G1 X124.951 Y174.616 E2.12857
G1 X125.384 Y124.951 E2.12857
G1 X125.682 Y125.254 E.00424
G1 X174.746 Y125.682 E2.10286
G1 X174.318 Y174.746 E2.10286
G1 X125.254 Y174.318 E2.10286
G1 X125.682 Y125.254 E2.10286
G1 X125.979 Y125.556 E.00424
G1 X174.444 Y125.979 E2.07714
G1 X174.021 Y174.444 E2.07714
G1 X125.556 Y174.021 E2.07714
G1 X125.979 Y125.556 E2.07714
G1 X126.276 Y125.859 E.00424
;LAYER_CHANGE
;Z:0.80
;HEIGHT:0.30000000000000004
;BEFORE_LAYER_CHANGE
;G92 E.0
;0.80
M204 S1000
G1 X126.417 Y126.001 F10800
;WIPE_START
G1 F8640
G1 X126.557 X126.144 E-.20000
G1 X126.837 X126.429 E-.20000
G1 X127.118 X126.715 E-.20000
G1 X127.398 X127.000 E-.20000
;WIPE_END
G1 E-.04 F2100
G1 Z1.1 F720
;AFTER_LAYER_CHANGE
;0.80
G1 X150.000 Y150.000 F10800
G1 Z.80 F720
G1 E.8 F2100
;TYPE:Perimeter
:WIDTH:0.419999
M204 S800
G1 F2400
M204 S1000
G1 X149.861 Y149.856 F10800
;WIPE_START
G1 F8640
G1 X149.722 X149.712 E-.20000
G1 X149.444 X149.425 E-.20000
G1 X149.166 X149.137 E-.20000
G1 X148.889 X148.849 E-.20000
;WIPE_END
G1 E-.04 F2100
G1 Z1.1 F720
G1 X125.768 Y124.907 F10800
G1 Z.80 F720
G1 E.8 F2100
;TYPE:Perimeter
:WIDTH:0.419999
M204 S800
G1 F2400
G1 X175.093 Y125.768 E2.11429
G1 X174.232 Y175.093 E2.11429
G1 X124.907 Y174.232 E2.11429
G1 X125.768 Y124.907 E2.11429
G1 X126.062 Y125.212 E.00424
G1 X174.788 Y126.062 E2.08857
G1 X173.938 Y174.788 E2.08857
G1 X125.212 Y173.938 E2.08857
G1 X126.062 Y125.212 E2.08857
G1 X126.357 Y125.517 E.00424
G1 X174.483 Y126.357 E2.06286
G1 X173.643 Y174.483 E2.06286
G1 X125.517 Y173.643 E2.06286
G1 X126.357 Y125.517 E2.06286
G1 X126.652 Y125.822 E.00424
;LAYER_CHANGE
;Z:1.10
;HEIGHT:0.30000000000000004
;BEFORE_LAYER_CHANGE
;G92 E.0
;1.10
M204 S1000
G1 X126.791 Y125.966 F10800
;WIPE_START
G1 F8640
G1 X126.930 X126.110 E-.20000
G1 X127.207 X126.398 E-.20000
G1 X127.485 X126.685 E-.20000
G1 X127.763 X126.973 E-.20000
;WIPE_END
G1 E-.04 F2100
G1 Z1.4000000000000001 F720
;AFTER_LAYER_CHANGE
;1.10
G1 X150.000 Y150.000 F10800
G1 Z1.10 F720
G1 E.8 F2100
;TYPE:Perimeter
:WIDTH:0.419999
M204 S800
G1 F2400
M204 S1000
G1 X149.862 Y149.855 F10800
;WIPE_START
G1 F8640
G1 X149.725 X149.710 E-.20000
G1 X149.449 X149.420 E-.20000
G1 X149.174 X149.130 E-.20000
G1 X148.899 X148.839 E-.20000
;WIPE_END
G1 E-.04 F2100
G1 Z1.4000000000000001 F720
G1 X126.150 Y124.867 F10800
G1 Z1.10 F720
G1 E.8 F2100
;TYPE:Perimeter
:WIDTH:0.419999
M204 S800
G1 F2400
G1 X175.133 Y126.150 E2.10000
G1 X173.850 Y175.133 E2.10000
G1 X124.867 Y173.850 E2.10000
G1 X126.150 Y124.867 E2.10000
G1 X126.442 Y125.175 E.00424
G1 X174.825 Y126.442 E2.07429
G1 X173.558 Y174.825 E2.07429
G1 X125.175 Y173.558 E2.07429
G1 X126.442 Y125.175 E2.07429
G1 X126.734 Y125.483 E.00424
G1 X174.517 Y126.734 E2.04857
G1 X173.266 Y174.517 E2.04857
G1 X125.483 Y173.266 E2.04857
G1 X126.734 Y125.483 E2.04857
G1 X127.026 Y125.790 E.00424
;LAYER_CHANGE
;Z:1.40
;HEIGHT:0.30000000000000004
;BEFORE_LAYER_CHANGE
;G92 E.0
;1.40
M204 S1000
G1 X127.164 Y125.935 F10800
;WIPE_START
G1 F8640
G1 X127.301 X126.080 E-.20000
G1 X127.577 X126.371 E-.20000
G1 X127.852 X126.661 E-.20000
G1 X128.127 X126.951 E-.20000
;WIPE_END
G1 E-.04 F2100
G1 Z1.7000000000000002 F720
;AFTER_LAYER_CHANGE
;1.40
G1 X150.000 Y150.000 F10800
G1 Z1.40 F720
G1 E.8 F2100
;TYPE:Perimeter
:WIDTH:0.419999
M204 S800
G1 F2400
M204 S1000
G1 X149.864 Y149.854 F10800
;WIPE_START
G1 F8640
G1 X149.727 X149.707 E-.20000
G1 X149.454 X149.415 E-.20000
G1 X149.182 X149.122 E-.20000
G1 X148.909 X148.830 E-.20000
;WIPE_END
G1 E-.04 F2100
G1 Z1.7000000000000002 F720
G1 X126.531 Y124.832 F10800
G1 Z1.40 F720
G1 E.8 F2100
;TYPE:Perimeter
:WIDTH:0.419999
M204 S800
G1 F2400
G1 X175.168 Y126.531 E2.08571
G1 X173.469 Y175.168 E2.08571
G1 X124.832 Y173.469 E2.08571
G1 X126.531 Y124.832 E2.08571
G1 X126.820 Y125.143 E.00424
G1 X174.857 Y126.820 E2.06000
G1 X173.180 Y174.857 E2.06000
G1 X125.143 Y173.180 E2.06000
G1 X126.820 Y125.143 E2.06000
G1 X127.109 Y125.453 E.00424
G1 X174.547 Y127.109 E2.03429
G1 X172.891 Y174.547 E2.03429
G1 X125.453 Y172.891 E2.03429
G1 X127.109 Y125.453 E2.03429
G1 X127.399 Y125.763 E.00424
;LAYER_CHANGE
;Z:1.70
;HEIGHT:0.30000000000000004
;BEFORE_LAYER_CHANGE
;G92 E.0
;1.70
M204 S1000
G1 X127.535 Y125.909 F10800
;WIPE_START
G1 F8640
G1 X127.672 X126.056 E-.20000
G1 X127.944 X126.348 E-.20000
G1 X128.217 X126.641 E-.20000
G1 X128.490 X126.933 E-.20000
;WIPE_END
G1 E-.04 F2100
G1 Z2.0 F720
;AFTER_LAYER_CHANGE
;1.70
G1 X150.000 Y150.000 F10800
G1 Z1.70 F720
G1 E.8 F2100
;TYPE:Perimeter
:WIDTH:0.419999
M204 S800
G1 F2400
M204 S1000
G1 X149.865 Y149.853 F10800
;WIPE_START
G1 F8640
G1 X149.730 X149.705 E-.20000
G1 X149.460 X149.410 E-.20000
G1 X149.189 X149.115 E-.20000
G1 X148.919 X148.820 E-.20000
;WIPE_END
G1 E-.04 F2100
G1 Z2.0 F720
G1 X126.910 Y124.802 F10800
G1 Z1.70 F720
G1 E.8 F2100
;TYPE:Perimeter
:WIDTH:0.419999
M204 S800
G1 F2400
G1 X175.198 Y126.910 E2.07143
G1 X173.090 Y175.198 E2.07143
G1 X124.802 Y173.090 E2.07143
G1 X126.910 Y124.802 E2.07143
G1 X127.197 Y125.115 E.00424
G1 X174.885 Y127.197 E2.04571
G1 X172.803 Y174.885 E2.04571
G1 X125.115 Y172.803 E2.04571
G1 X127.197 Y125.115 E2.04571
G1 X127.484 Y125.428 E.00424
G1 X174.572 Y127.484 E2.02000
G1 X172.516 Y174.572 E2.02000
G1 X125.428 Y172.516 E2.02000
G1 X127.484 Y125.428 E2.02000
G1 X127.770 Y125.741 E.00424
;LAYER_CHANGE
;Z:2.00
;HEIGHT:0.2999999999999998
;BEFORE_LAYER_CHANGE
;G92 E.0
;2.00
M204 S1000
G1 X127.905 Y125.888 F10800
;WIPE_START
G1 F8640
G1 X128.041 X126.036 E-.20000
G1 X128.311 X126.330 E-.20000
G1 X128.581 X126.625 E-.20000
G1 X128.851 X126.920 E-.20000
;WIPE_END
G1 E-.04 F2100
G1 Z2.3 F720
;AFTER_LAYER_CHANGE
;2.00
G1 X150.000 Y150.000 F10800
G1 Z2.00 F720
G1 E.8 F2100
;TYPE:Perimeter
:WIDTH:0.419999
M204 S800
G1 F2400
M204 S1000
G1 X149.866 Y149.851 F10800
;WIPE_START
G1 F8640
G1 X149.732 X149.703 E-.20000
G1 X149.465 X149.405 E-.20000
G1 X149.197 X149.108 E-.20000
G1 X148.929 X148.811 E-.20000
;WIPE_END
G1 E-.04 F2100
G1 Z2.3 F720
G1 X127.289 Y124.777 F10800
G1 Z2.00 F720
G1 E.8 F2100
;TYPE:Perimeter
:WIDTH:0.419999
M204 S800
G1 F2400
G1 X175.223 Y127.289 E2.05714
G1 X172.711 Y175.223 E2.05714
G1 X124.777 Y172.711 E2.05714
G1 X127.289 Y124.777 E2.05714
G1 X127.573 Y125.092 E.00424
G1 X174.908 Y127.573 E2.03143
G1 X172.427 Y174.908 E2.03143
G1 X125.092 Y172.427 E2.03143
G1 X127.573 Y125.092 E2.03143
G1 X127.857 Y125.407 E.00424
G1 X174.593 Y127.857 E2.00571
G1 X172.143 Y174.593 E2.00571
G1 X125.407 Y172.143 E2.00571
G1 X127.857 Y125.407 E2.00571
G1 X128.141 Y125.723 E.00424
;LAYER_CHANGE
;Z:2.30
;HEIGHT:0.2999999999999998
;BEFORE_LAYER_CHANGE
;G92 E.0
;2.30
M204 S1000
G1 X128.274 Y125.871 F10800
;WIPE_START
G1 F8640
G1 X128.408 X126.020 E-.20000
G1 X128.676 X126.317 E-.20000
G1 X128.944 X126.614 E-.20000
G1 X129.211 X126.912 E-.20000
;WIPE_END
G1 E-.04 F2100
G1 Z2.5999999999999996 F720
;AFTER_LAYER_CHANGE
;2.30
G1 X150.000 Y150.000 F10800
G1 Z2.30 F720
G1 E.8 F2100
;TYPE:Perimeter
:WIDTH:0.419999
M204 S800
G1 F2400
M204 S1000
G1 X149.867 Y149.850 F10800
;WIPE_START
G1 F8640
G1 X149.735 X149.700 E-.20000
G1 X149.470 X149.401 E-.20000
G1 X149.205 X149.101 E-.20000
G1 X148.940 X148.802 E-.20000
;WIPE_END
G1 E-.04 F2100
G1 Z2.5999999999999996 F720
G1 X127.666 Y124.756 F10800
G1 Z2.30 F720
G1 E.8 F2100
;TYPE:Perimeter
:WIDTH:0.419999
M204 S800
G1 F2400
G1 X175.244 Y127.666 E2.04286
G1 X172.334 Y175.244 E2.04286
G1 X124.756 Y172.334 E2.04286
G1 X127.666 Y124.756 E2.04286
G1 X127.947 Y125.074 E.00424
G1 X174.926 Y127.947 E2.01714
G1 X172.053 Y174.926 E2.01714
G1 X125.074 Y172.053 E2.01714
G1 X127.947 Y125.074 E2.01714
G1 X128.228 Y125.392 E.00424
G1 X174.608 Y128.228 E1.99143
G1 X171.772 Y174.608 E1.99143
G1 X125.392 Y171.772 E1.99143
G1 X128.228 Y125.392 E1.99143
G1 X128.509 Y125.709 E.00424
;LAYER_CHANGE
;Z:2.60
;HEIGHT:0.2999999999999998
;BEFORE_LAYER_CHANGE
;G92 E.0
;2.60
M204 S1000
G1 X128.642 Y125.859 F10800
;WIPE_START
G1 F8640
G1 X128.775 X126.009 E-.20000
G1 X129.040 X126.309 E-.20000
G1 X129.305 X126.608 E-.20000
G1 X129.570 X126.908 E-.20000
;WIPE_END
G1 E-.04 F2100
G1 Z2.8999999999999995 F720
;AFTER_LAYER_CHANGE
;2.60
G1 X150.000 Y150.000 F10800
G1 Z2.60 F720
G1 E.8 F2100
;TYPE:Perimeter
:WIDTH:0.419999
M204 S800
G1 F2400
M204 S1000
G1 X149.869 Y149.849 F10800
;WIPE_START
G1 F8640
G1 X149.738 X149.698 E-.20000
G1 X149.475 X149.396 E-.20000
G1 X149.213 X149.094 E-.20000
G1 X148.950 X148.792 E-.20000
;WIPE_END
G1 E-.04 F2100
G1 Z2.8999999999999995 F720
G1 X128.042 Y124.740 F10800
G1 Z2.60 F720
G1 E.8 F2100
;TYPE:Perimeter
:WIDTH:0.419999
M204 S800
G1 F2400
G1 X175.260 Y128.042 E2.02857
G1 X171.958 Y175.260 E2.02857
G1 X124.740 Y171.958 E2.02857
G1 X128.042 Y124.740 E2.02857
G1 X128.320 Y125.060 E.00424
G1 X174.940 Y128.320 E2.00286
G1 X171.680 Y174.940 E2.00286
G1 X125.060 Y171.680 E2.00286
G1 X128.320 Y125.060 E2.00286
G1 X128.599 Y125.380 E.00424
G1 X174.620 Y128.599 E1.97714
G1 X171.401 Y174.620 E1.97714
G1 X125.380 Y171.401 E1.97714
G1 X128.599 Y125.380 E1.97714
G1 X128.877 Y125.701 E.00424
;LAYER_CHANGE
;Z:2.90
;HEIGHT:0.2999999999999998
;BEFORE_LAYER_CHANGE
;G92 E.0
;2.90
M204 S1000
G1 X129.008 Y125.852 F10800
;WIPE_START
G1 F8640
G1 X129.139 X126.003 E-.20000
G1 X129.402 X126.304 E-.20000
G1 X129.664 X126.606 E-.20000
G1 X129.927 X126.908 E-.20000
;WIPE_END
G1 E-.04 F2100
G1 Z3.1999999999999993 F720
;AFTER_LAYER_CHANGE
;2.90
G1 X150.000 Y150.000 F10800
G1 Z2.90 F720
G1 E.8 F2100
;TYPE:Perimeter
:WIDTH:0.419999
M204 S800
G1 F2400
M204 S1000
G1 X149.870 Y149.848 F10800
;WIPE_START
G1 F8640
G1 X149.740 X149.696 E-.20000
G1 X149.480 X149.392 E-.20000
G1 X149.221 X149.088 E-.20000
G1 X148.961 X148.783 E-.20000
;WIPE_END
G1 E-.04 F2100
G1 Z3.1999999999999993 F720
G1 X128.416 Y124.729 F10800
G1 Z2.90 F720
G1 E.8 F2100
;TYPE:Perimeter
:WIDTH:0.419999
M204 S800
G1 F2400
G1 X175.271 Y128.416 E2.01429
G1 X171.584 Y175.271 E2.01429
G1 X124.729 Y171.584 E2.01429
G1 X128.416 Y124.729 E2.01429
G1 X128.692 Y125.051 E.00424
G1 X174.949 Y128.692 E1.98857
G1 X171.308 Y174.949 E1.98857
G1 X125.051 Y171.308 E1.98857
G1 X128.692 Y125.051 E1.98857
G1 X128.967 Y125.374 E.00424
G1 X174.626 Y128.967 E1.96286
G1 X171.033 Y174.626 E1.96286
G1 X125.374 Y171.033 E1.96286
G1 X128.967 Y125.374 E1.96286
G1 X129.243 Y125.696 E.00424
;LAYER_CHANGE
;Z:3.20
;HEIGHT:0.2999999999999998
;BEFORE_LAYER_CHANGE
;G92 E.0
;3.20
M204 S1000
G1 X129.373 Y125.849 F10800
;WIPE_START
G1 F8640
G1 X129.503 X126.001 E-.20000
G1 X129.762 X126.305 E-.20000
G1 X130.022 X126.609 E-.20000
G1 X130.282 X126.913 E-.20000
;WIPE_END
G1 E-.04 F2100
G1 Z3.499999999999999 F720
;AFTER_LAYER_CHANGE
;3.20
G1 X150.000 Y150.000 F10800
G1 Z3.20 F720
G1 E.8 F2100
;TYPE:Perimeter
:WIDTH:0.419999
M204 S800
G1 F2400
M204 S1000
G1 X149.871 Y149.847 F10800
;WIPE_START
G1 F8640
G1 X149.743 X149.694 E-.20000
G1 X149.486 X149.387 E-.20000
G1 X149.229 X149.081 E-.20000
G1 X148.972 X148.774 E-.20000
;WIPE_END
G1 E-.04 F2100
G1 Z3.499999999999999 F720
G1 X128.789 Y124.722 F10800
G1 Z3.20 F720
G1 E.8 F2100
;TYPE:Perimeter
:WIDTH:0.419999
M204 S800
G1 F2400
G1 X175.278 Y128.789 E2.00000
G1 X171.211 Y175.278 E2.00000
G1 X124.722 Y171.211 E2.00000
G1 X128.789 Y124.722 E2.00000
G1 X129.062 Y125.047 E.00424
G1 X174.953 Y129.062 E1.97429
G1 X170.938 Y174.953 E1.97429
G1 X125.047 Y170.938 E1.97429
G1 X129.062 Y125.047 E1.97429
G1 X129.335 Y125.372 E.00424
G1 X174.628 Y129.335 E1.94857
G1 X170.665 Y174.628 E1.94857
G1 X125.372 Y170.665 E1.94857
G1 X129.335 Y125.372 E1.94857
G1 X129.607 Y125.697 E.00424
;LAYER_CHANGE
;Z:3.50
;HEIGHT:0.2999999999999998
;BEFORE_LAYER_CHANGE
;G92 E.0
;3.50
M204 S1000
G1 X129.736 Y125.850 F10800
;WIPE_START
G1 F8640
G1 X129.864 X126.003 E-.20000
G1 X130.121 X126.310 E-.20000
G1 X130.379 X126.616 E-.20000
G1 X130.636 X126.923 E-.20000
;WIPE_END
G1 E-.04 F2100
G1 Z3.799999999999999 F720
;AFTER_LAYER_CHANGE
;3.50
G1 X150.000 Y150.000 F10800
G1 Z3.50 F720
G1 E.8 F2100
;TYPE:Perimeter
:WIDTH:0.419999
M204 S800
G1 F2400
M204 S1000
G1 X149.873 Y149.846 F10800
;WIPE_START
G1 F8640
G1 X149.746 X149.691 E-.20000
G1 X149.491 X149.383 E-.20000
G1 X149.237 X149.074 E-.20000
G1 X148.982 X148.765 E-.20000
;WIPE_END
G1 E-.04 F2100
G1 Z3.799999999999999 F720
G1 X129.160 Y124.720 F10800
G1 Z3.50 F720
G1 E.8 F2100
;TYPE:Perimeter
:WIDTH:0.419999
M204 S800
G1 F2400
G1 X175.280 Y129.160 E1.98571
G1 X170.840 Y175.280 E1.98571
G1 X124.720 Y170.840 E1.98571
G1 X129.160 Y124.720 E1.98571
G1 X129.430 Y125.047 E.00424
G1 X174.953 Y129.430 E1.96000
G1 X170.570 Y174.953 E1.96000
G1 X125.047 Y170.570 E1.96000
G1 X129.430 Y125.047 E1.96000
G1 X129.700 Y125.374 E.00424
G1 X174.626 Y129.700 E1.93429
G1 X170.300 Y174.626 E1.93429
G1 X125.374 Y170.300 E1.93429
G1 X129.700 Y125.374 E1.93429
G1 X129.970 Y125.702 E.00424
;LAYER_CHANGE
;Z:3.80
;HEIGHT:0.2999999999999998
;BEFORE_LAYER_CHANGE
;G92 E.0
;3.80
M204 S1000
G1 X130.097 Y125.856 F10800
;WIPE_START
G1 F8640
G1 X130.224 X126.010 E-.20000
G1 X130.479 X126.319 E-.20000
G1 X130.733 X126.628 E-.20000
